X:4303
T:Dorset Shire March. JC.087
M:C|
L:1/8
Q:120
S:John Clare,Poet,Helpston. (1793-1864)
R:March
O:England
A:Northamptonshire
N:MR. Bars 9,13,16 following the dotted qu,the qu in the Ms is given as a
N:semi-qu.
Z:P Headford
K:D
D2|F2DFA2FA|d2Adf2df|a2bag2f2|e2eee2D2|!
F2DFA2FA|Bcde dcBA|Bcdg f2e2|d2d>dd2:|!
|:A2|d>efd d>efd|AF dB AFED|GAdc BAGF|E2EE "qu"E2D2|!
"qu"F2DFA2F>A|B2ge dcBA|Bbagf2e2|d2d>dd2:|]
